X:1
T:Title
%%score { 1 | 2 }
L:1/8
Q:1/4=100
M:4/4
K:Ab
V:1 treble nm="Grand Piano"
V:2 bass 
V:1
 [CE][CE][CE][CA] [Ec][Ec][EB][A,EA] | [A,FA]2 F2 E4 | EEF[EG] [EA][EA][EB][Ec] | [Ed]2 [Ec]2 B4 | %4
w: John~R.~Sweney * * * * * * *||||
 ceec [Fd][Ec][DB][CA] | [DB]2 [Fd]2 [DF]4 | [CE][CE][EA]B cAdc | [EGB]2 [DEB]2 [CEA]4 | %8
w: ||||
 BBBc edcB | [Ec]2 [CE][DF] [CA]4 | B2 Bc edcB | c2 [Ee]2 B4 | ceec [Fd][Ec][DB][CA] | %13
w: |||||
 [DB]2 [Fd]2 [DF]4 | [CE]2 [EA]B cAdc | [EGB]2 [DEB]2 [CEA]4 |] %16
w: |||
V:2
 [A,,A,][A,,A,][A,,A,][A,,E,] [A,,A,][A,,A,]B,,C, | D,2 [F,A,D]2 [A,C]4 | %2
 [E,G,D][E,G,D][E,A,D][D,B,] [C,A,][C,A,][B,,G,][A,,A,] | [G,,B,]2 [A,,A,]2 [E,G,E]4 | %4
 [A,E][A,CE][A,CE][A,E] [A,,A,][A,,A,][A,,E,][A,,E,] | [D,F,]2 [D,A,]2 [D,A,]4 | %6
 [A,,A,][A,,A,][C,A,][E,G,E][K:treble] [A,E][A,CE][A,FA][A,EA] | E,2 E,2 A,,4 | %8
 [E,G,E][E,G,E][E,G,E][E,A,E] [E,CE][E,B,E][E,A,E][E,G,E] | [A,,A,]2 [A,,A,]2 [A,,E,]4 | %10
 [E,G,E]2 [E,G,E][E,A,E] [E,CE][E,B,E][E,A,E][E,G,E] | [A,E]2 [C,A,]2 [E,G,E]4 | %12
 [A,E][A,CE][A,CE][A,E] [A,,A,][A,,A,][A,,E,][A,,E,] | [D,F,]2 [D,A,]2 [D,A,]4 | %14
 [A,,A,]2 [C,A,][E,G,E][K:treble] [A,E][A,CE][A,FA][A,EA] | E,2 E,2 A,,4 |] %16

